!!!COA: des Prez, Josquin
!!!ONB: probably by Hellinck or Finck
!!!CDT: ~1450-1521/08/27
!!!OTL: Magnus es tu domine
!!!AGN: Motet
!!!SCT: NJE 21.6
!!!SCA: New Josquin Edition 21.6
!!!voices: 4
!!!COM: des Prez, Josquin ?
!!!OTL: Jos2106-Magnus_es_tu,_domine
**kern	**kern	**kern	**kern
*part4	*part3	*part2	*part1
*staff4	*staff3	*staff2	*staff1
*Ivox	*Ivox	*Ivox	*Ivox
*I"Bassus	*I"Tenor	*I"Altus	*I"Superius
*I'B	*I'T	*I'A	*I'S
*>[A,B]	*>[A,B]	*>[A,B]	*>[A,B]
*>A	*>A	*>A	*>A
*clefF4	*clefGv2	*clefGv2	*clefG2
*k[]	*k[]	*k[]	*k[]
*a:	*a:	*a:	*a:
*M3/1	*M3/1	*M3/1	*M3/1
*met(O)	*met(O)	*met(O)	*met(O)
=	=	=	=
!	!	!	!LO:TX:a:t=SAB originally notated with doubled note values under Cut-C or O2?
!!section: Prima pars: Magnus es tu, domine?
!!!OMD: Prima pars
1E	0.r	0.r	0e
2.A	.	.	.
8GL	.	.	.
8FJ	.	.	.
2G	.	.	1e
2A	.	.	.
=3	=3	=3	=3
2.D	0.r	0.r	0f
4E	.	.	.
4F	.	.	.
4G	.	.	.
2.A	.	.	.
.	.	.	1e
4G	.	.	.
2G	.	.	.
=4	=4	=4	=4
2F	1r	0.r	2d
2D	.	.	2.f
2E	1G	.	.
.	.	.	4e
2G	.	.	1e
1F	1A	.	.
.	.	.	2d
=5	=5	=5	=5
1E	2B	0.r	2.e
.	1c	.	.
.	.	.	4f
2C	.	.	2g
2F	4B	.	1a
.	4A	.	.
1E	1B	.	.
.	.	.	2g#i
=6	=6	=6	=6
2F	1A	1c	0a
1A	.	.	.
.	1F	1c	.
4G	.	.	.
4F	.	.	.
1E	1G	1c	1r
=7	=7	=7	=7
2D	2A	2d	1r
2.E	2.G	2.c	.
.	.	.	1r
4D	4F	4B	.
2C	1E	1A	.
1BB	.	.	1b
.	2D	2G#i	.
=8	=8	=8	=8
1AA	2.E	2A	2.cc
.	.	2.c	.
.	4F	.	8bL/
.	.	.	8aJ/
2r	1G	.	2g
.	.	4B	.
2E	.	1e	2b
1F	1A	.	1a
.	.	2d	.
=9	=9	=9	=9
1.E	2B	1e	1g
.	2c	.	.
.	2B	1r	2g
2AA	2A	.	1a
1E	1B	[1e	.
.	.	.	2g#i
=10	=10	=10	=10
2r	2.A	2e]	0a
2A	.	2f	.
.	4B	.	.
2A	2c	2e	.
2D	1d	2d	.
1A	.	1e	1a
.	2c#i	.	.
=11	=11	=11	=11
2r	2d	2d	0a
2c	1A	2e	.
2c	.	2c	.
2F	2D	1f	.
1c	1A	.	1a
.	.	2f	.
=12	=12	=12	=12
1.B	1E	1e	0g
.	0G	2.e	.
2E	.	.	.
.	.	8dL\	.
.	.	8cJ\	.
1E	.	2B	1g
.	.	2c	.
=13	=13	=13	=13
0D	0A	1.d	0f
.	.	4c	.
.	.	4B	.
1D	1r	2A	1f
.	.	2B	.
=14	=14	=14	=14
2AA	1r	1c	0e
1A	.	.	.
.	1r	2A	.
2G	.	2B	.
1A	1A	1c	1e
=15	=15	=15	=15
2.E	2.G	1B	2e
.	.	.	2.g
4F	4A	.	.
2G	2B	1r	.
.	.	.	4f
2A	2c	.	1e
1F	1A	1r	.
.	.	.	2d
=16	=16	=16	=16
1E	1B	2r	0e
.	.	2B	.
2r	1r	4c	.
.	.	4B	.
2E	.	1e	.
1F	1r	.	1r
.	.	2d	.
=17	=17	=17	=17
2.E	0.r	2.e	0.r
4F	.	8dL\	.
.	.	8cJ\	.
4G	.	4B	.
2A	.	2c	.
8GL	.	8BL/	.
8FJ	.	8AJ/	.
2E	.	2G	.
2G	.	2B	.
=18	=18	=18	=18
2F	0.r	2A	0.r
2.E	.	2c	.
.	.	2B	.
4D	.	.	.
2C	.	1A	.
1BB	.	.	.
.	.	2G#i	.
=19	=19	=19	=19
1AA	2.c	1A	1e
.	8BL/	.	.
.	8AJ/	.	.
1r	4G	1r	2.e
.	2A	.	.
.	8GL	.	4f
.	8FJ	.	.
1r	2E	1r	2g
.	2F	.	2a
=20	=20	=20	=20
0.r	2G	0.r	2b
.	2A	.	2e
.	2B	.	2r
.	2E	.	2g
.	2r	.	2.g
.	2E	.	.
.	.	.	4a
=21	=21	=21	=21
0.r	2G	0.r	2b
.	2A	.	2cc
.	2B	.	2dd
.	2.c	.	2g
.	.	.	1cc
.	4B	.	.
.	2A	.	.
=22	=22	=22	=22
1r	2G	1r	2b
.	2A	.	1a
1r	0E	1B	.
.	.	.	2g#i
1AA	.	2.c	1a
.	.	4d	.
=23	=23	=23	=23
1C	2r	1e	0g
.	2.G	.	.
2BB	.	2d	.
.	4F	.	.
2C	1E	2c	.
1D	.	2.A	1f
.	2D	.	.
.	.	4B	.
=24	=24	=24	=24
1AA	0E	2c	1e
.	.	4B	.
.	.	4A	.
2r	.	0G	1r
2.C	.	.	.
.	1r	.	1r
4BB	.	.	.
2C	.	.	.
=25	=25	=25	=25
2D	0.r	2r	0.r
2.E	.	2.c	.
4D	.	4B	.
2E	.	2c	.
2F	.	2d	.
2E	.	[2e	.
=26	=26	=26	=26
1C	0.r	4e]	0.r
.	.	4d	.
.	.	2e	.
2D	.	2f	.
2C	.	2e	.
2AA	.	1c	.
2A	.	.	.
=27	=27	=27	=27
2D	0.r	2d	0.r
2.A	.	2c	.
.	.	2A	.
4G	.	.	.
4F	.	2.d	.
4E	.	.	.
2D	.	.	.
.	.	8cL\	.
.	.	8BJ\	.
2A	.	2c	.
=28	=28	=28	=28
2G	0.r	2d	0.r
2E	.	2.e	.
1F	.	.	.
.	.	8dL	.
.	.	8cJ	.
.	.	2d	.
1E	.	4G	.
.	.	2A	.
.	.	4G#i	.
=29	=29	=29	=29
1AA	2.E	1A	2r
.	.	.	2e
.	4F	.	.
1r	2G	1r	2.e
.	2A	.	.
.	.	.	4f
1r	2B	1r	2g
.	2c	.	2a
=30	=30	=30	=30
0.r	4B	0.r	2b
.	4G	.	.
.	2A	.	2cc
.	2E	.	4b
.	.	.	4g
.	4r	.	2a
.	4D	.	.
.	4E	.	2e
.	2G	.	.
.	.	.	4r
.	[4F	.	4d
=31	=31	=31	=31
0.r	4F]	0.r	4e
.	2E	.	2g
.	4D	.	2f
.	2E	.	.
.	.	.	2e
.	2F	.	.
.	.	.	4d
.	4.E	.	2e
.	8C	.	.
.	4c	.	4r
.	[4B	.	[4d
=32	=32	=32	=32
0.r	4B]	0.r	4d]
.	2A	.	4c
.	.	.	2B
.	4G#i	.	.
.	4.A	.	4A
.	.	.	2cc
.	8Gni	.	.
.	4A	.	.
.	4E	.	2b
.	4G	.	.
.	4A	.	2a
.	2B	.	.
.	.	.	4g#i
=33	=33	=33	=33
1AA	1A	1c	1a
1E	2r	2B	2b
.	2G	1e	2.cc
1F	1A	.	.
.	.	.	4b
.	.	2d	[2a
=34	=34	=34	=34
1E	1B	2.e	2a]
.	.	.	2g#i
.	.	4d	.
1r	2A	2c	2a
.	2G	2B	4d
.	.	.	2g
1r	1A	2.c	.
.	.	.	8f#iL
.	.	.	8eJ
.	.	.	2f#i
.	.	4d	.
=35	=35	=35	=35
1E	1G	2.e	1g
.	.	8dL	.
.	.	8cJ	.
1B	2r	2d	2r
.	2E	2e	2g
1c	1A	1f	1a
=36	=36	=36	=36
2.B	1E	1e	2.g
4c	.	.	4a
2d	2D	1r	2b
2e	2C	.	2cc
2.E	2.G	1e	2b
.	.	.	2g
4F	4A	.	.
=37	=37	=37	=37
2G	2B	2d	2r
2A	2c	2c	2.cc
2.AA	2.C	1e	.
.	.	.	4a
.	.	.	2.cc
4BB	4D	.	.
2C	2E	1r	.
.	.	.	4b
2D	2F	.	2a
=38	=38	=38	=38
2.E	2.G	1e	2g
.	.	.	2.b
4F	4A	.	.
2G	2B	1e	.
.	.	.	4a
2A	2c	.	1a
1E	1B	1e	.
.	.	.	2g#i
=39	=39	=39	=39
1AA	2.A	2.c	2a
.	.	.	2.A
.	4B	4d	.
2.AA	2.c	1e	.
.	.	.	4B
.	.	.	4c
4BB	8BL/	.	4d
.	8AJ/	.	.
2C	2G	2r	2e
2D	2F	2d	2f
=40	=40	=40	=40
2E	2E	2G	2g
2F	2D	2f	2a
2G	1r	2e	2b
2A	.	1e	2cc
1F	2.D	.	1a
.	.	2d	.
.	8EL	.	.
.	8FJ	.	.
=41	=41	=41	=41
2E	2G	2e	2g
2D	1A	2A	2.f
2AA	.	1c	.
.	.	.	4e
2C	2G	.	1e
1D	1F	1A	.
.	.	.	2d
=42	=42	=42	=42
2r	[0.El	2B	[0.el
2AA	.	2c	.
2GG	.	2B	.
1AA	.	2A	.
.	.	1B	.
2GG	.	.	.
=43	=43	=43	=43
1AA	0.E]	1c	0.e]
0El	.	0Bl	.
!!LO:LB:i:g=z
=44||	=44||	=44||	=44||
*>B	*>B	*>B	*>B
*clefF4	*clefGv2	*clefGv2	*clefG2
*k[]	*k[]	*k[]	*k[]
*M2/1	*M2/1	*M2/1	*M2/1
*met(C|)	*met(C|)	*met(C|)	*met(C|)
!!section: Secunda pars: Tu pauperum refugium
!!!OMD: Secunda pars: Tu pauperum refugium
0E	0B	0e	0g
=45	=45	=45	=45
1E	1B	1e	1g
1E	1B	1e	1g
=46	=46	=46	=46
1AA	1c	1e	1a
1AA	1c	1e	1cc
=47	=47	=47	=47
1A	1c	1f	2.cc
.	.	.	4b
1A	1c	1f	1a
=48	=48	=48	=48
0E	0B	0e	0g
=49	=49	=49	=49
1r	1r	1r	1r
1E	1B	1e	1g
=50	=50	=50	=50
1C	1c	1e	1e
1D	2B	2.d	1f
.	[2A	.	.
.	.	4c	.
=51	=51	=51	=51
1E	2A]	1B	1g
.	2G	.	.
1AA	2A	1A	1c
.	[2c	.	.
=52	=52	=52	=52
1.c	4c]	2r	1.cc
.	4B	.	.
.	4A	2.c	.
.	4G	.	.
.	2A	.	.
.	.	4d	.
2G	2B	2e	[2b
=53	=53	=53	=53
2F	2c	1f	4b]
.	.	.	4a
2D	2d	.	1a
1E	1B	1e	.
.	.	.	2g#i
=54	=54	=54	=54
1AA	1A	1e	1a
2r	2r	2r	2r
2A	2A	2c	2cc
=55	=55	=55	=55
1G	1B	2d	1b
.	.	2e	.
1A	1c	1f	1a
=56	=56	=56	=56
1E	1B	1e	1g
2r	2r	2r	2r
[2E	[2B	2e	2g
=57	=57	=57	=57
2E]	2B]	1e	1g
2C	2c	.	.
1F	1c	1f	1a
=58	=58	=58	=58
1C	1c	1e	1g
2r	1r	2r	2r
2C	.	2e	2g
=59	=59	=59	=59
0C	0r	1e	0g
.	.	1e	.
=60	=60	=60	=60
1D	0r	1d	1f
1E	.	2c	[1e
.	.	[2B	.
=61	=61	=61	=61
0F	1r	2B]	2e]
.	.	4A	4d
.	.	4G	4c
.	2A	1A	1d
.	2A	.	.
=62	=62	=62	=62
0E	2A	1B	[0e
.	4G#i	.	.
.	4F#i	.	.
.	1G#i	1B	.
=63	=63	=63	=63
0AA	0A	1.c	0e]
.	.	4B	.
.	.	4A	.
=64	=64	=64	=64
0r	0r	2G	1.e
.	.	1A	.
.	.	4G	2f
.	.	4F	.
=65	=65	=65	=65
0r	0r	1E	1g
.	.	1D	2.a
.	.	.	4g
=66	=66	=66	=66
0r	0r	2r	2a
.	.	1d	2d
.	.	.	1e
.	.	2c#i	.
=67	=67	=67	=67
0r	0r	2.d	1d
.	.	4c	.
.	.	2d	2r
.	.	2G	[2dd
=68	=68	=68	=68
0r	0r	1A	2dd]
.	.	.	2cc
.	.	2.G	2dd
.	.	.	[2b
.	.	4F	.
=69	=69	=69	=69
0r	0r	2G	2b]
.	.	2A	1cc
.	.	1c	.
.	.	.	4b
.	.	.	4a
=70	=70	=70	=70
1E	1r	1B	1g
1E	1B	1r	1r
=71	=71	=71	=71
1D	1B	0r	0r
1F	1A	.	.
=72	=72	=72	=72
1E	1c	0r	0r
2D	1B	.	.
[2G	.	.	.
=73	=73	=73	=73
2G]	1A	0r	0r
2F	.	.	.
2E	2G	.	.
4D	[2c	.	.
4C	.	.	.
=74	=74	=74	=74
1D	2c]	0r	0r
.	2B	.	.
2C	2c	.	.
[2F	[2A	.	.
=75	=75	=75	=75
4F]	2A]	0r	0r
4E	.	.	.
1E	2G	.	.
.	1F	.	.
2D	.	.	.
=76	=76	=76	=76
1E	1E	0r	0r
1r	1r	.	.
=77	=77	=77	=77
*M3/1	*M3/1	*M3/1	*M3/1
*met(O/3)	*met(O/3)	*met(O/3)	*met(O/3)
1E	1B	1e	1g
1E	1B	1e	1g
1C	[1c	1e	1g
=78	=78	=78	=78
0F	2c]	1.f	0a
.	2B	.	.
.	1A	.	.
.	.	2e	.
1G	1G	1d	1b
=79	=79	=79	=79
1.A	1r	0c	1.cc
.	1A	.	.
2G	.	.	2b
1F	1A	1d	1a
=80	=80	=80	=80
0E	0B	0e	0g
1r	1r	1r	1r
=81	=81	=81	=81
1E	1B	1.e	1g
1E	1B	.	1g
.	.	4d	.
.	.	4c	.
1E	1B	1B	1g
=82	=82	=82	=82
1AA	0A	1c	1.a
0D	.	1d	.
.	.	.	2g
.	1D	1B	2f
.	.	.	2e
=83	=83	=83	=83
1C	1E	1c	0e
0D	0F	0A	.
.	.	.	1d
=84	=84	=84	=84
1G	1E	1B	1e
1r	1r	1r	1r
1G	1E	1B	1e
=85	=85	=85	=85
1.C	1G	1c	1e
.	1G	1c	1e
2D	.	.	.
1E	1G	1c	1e
=86	=86	=86	=86
1E	1C	2.c	1g
.	.	4B	.
1C	1r	2A	1a
.	.	1A	.
1BB	1D	.	1b
.	.	2G#i	.
=87	=87	=87	=87
0AA	1E	1A	1.cc
.	1c	0e	.
.	.	.	4b
.	.	.	4a
1E	1B	.	1g
=88	=88	=88	=88
1F	1A	1d	0a
0E	0B	0e	.
.	.	.	1g#i
=89	=89	=89	=89
*M2/1	*M2/1	*M2/1	*M2/1
*met(C|)	*met(C|)	*met(C|)	*met(C|)
0AA	0A	1e	1a
.	.	2r	2r
.	.	2A	2cc
=90	=90	=90	=90
0r	0r	1e	2b
.	.	.	1cc
.	.	1f	.
.	.	.	4b
.	.	.	4a
=91	=91	=91	=91
1r	1r	1e	1g
2r	2r	1r	1r
2AA	2c	.	.
=92	=92	=92	=92
2E	2B	0r	0r
2E	2c	.	.
1F	2c	.	.
.	4B	.	.
.	4A	.	.
=93	=93	=93	=93
1E	1G	1r	1r
2r	2r	2r	2r
[2A	2A	[2e	2cc
=94	=94	=94	=94
2A]	1B	2e]	1b
2G	.	2e	.
1A	1c	1f	1a
=95	=95	=95	=95
1E	2B	1e	1g
.	2G	.	.
2r	2r	2r	2r
[2F	2F	[2c	2a
=96	=96	=96	=96
2F]	1G	2c]	1g
2E	.	2c	.
1F	1A	1c	1f
=97	=97	=97	=97
1C	1G	1c	1e
2r	2r	2r	2r
[2D	2F	2A	[2f
=98	=98	=98	=98
2D]	2D	2B	4f]
.	.	.	4e
2C	2E	2c	1e
1D	1F	2.A	.
.	.	.	2d
.	.	4B	.
=99	=99	=99	=99
1AA	1E	1c	1e
1r	1r	1r	1r
=100	=100	=100	=100
1AA	1E	1e	1cc
1AA	1E	1e	1cc
=101	=101	=101	=101
1E	1G	2.e	1b
.	.	4d	.
1E	1G	4c	1b
.	.	4B	.
.	.	[2e	.
=102	=102	=102	=102
1F	1A	2e]	1a
.	.	4d	.
.	.	4c	.
1F	1A	1d	1a
=103	=103	=103	=103
1E	2B	2e	1g
.	2G	2B	.
2r	2G	2B	2r
2E	4F	4A	2g
.	4E	4G	.
=104	=104	=104	=104
0E	2G	2B	2g
.	2C	2E	4f
.	.	.	4e
.	2r	2B	2g
.	[2c	2G	2c
=105	=105	=105	=105
0AA	4c]	1c	2r
.	4B	.	.
.	4A	.	1cc
.	4G	.	.
.	1A	1c	.
.	.	.	4b
.	.	.	4a
=106	=106	=106	=106
0E	2G	2B	2b
.	1c	2.e	2e
.	.	.	1g
.	.	4d	.
.	2B	2e	.
=107	=107	=107	=107
1F	1A	1c	1f
1C	1G	1c	[1e
=108	=108	=108	=108
0D	0F	0A	2e]
.	.	.	4d
.	.	.	4c
.	.	.	1d
=109	=109	=109	=109
1r	[0El	1.B	[0el
[1E	.	.	.
.	.	2E	.
=110	=110	=110	=110
1E]	0E_	1B	0e_
1AA	.	1c	.
=111	=111	=111	=111
0El	0E]	0Bl	0e]
==	==	==	==
*-	*-	*-	*-
!!!RDF**kern: l=long note in original notation
!!!system-decoration: s1,s2,s3,s4
!!!RDF**kern: i = editorial accidental
!!!ENC: Chris Gage 06-11-2012
!!!END: 2020/10/21
!!!EED: Jesse Rodin
!!!EEV: 2020/10/23
!!attribution-level@Jos: 4a (the rest [double question mark])
!!!ONB: Translated from MusicXML and edited on 2021/02/07 by Craig Sapp
!!muse2ps: C^Hellinck or Finck?\n@{SCT}^i2I150v85,85,85,150c115
